Numix-GalliumOS/64/mimetypes/application-vnd.oasis.opendocument.text-web.svg

<svg xmlns="http://www.w3.org/2000/svg" xmlns:xlink="http://www.w3.org/1999/xlink" width="64px" height="64px" viewBox="0 0 64 64" version="1.1">
<g id="surface1">
<path style=" stroke:none;fill-rule:nonzero;fill:rgb(43.921569%,60%,76.470588%);fill-opacity:1;" d="M 10.671875 0 C 9.296875 0 8 1.355469 8 2.789062 L 8 61.210938 C 8 62.566406 9.375 64 10.671875 64 L 53.328125 64 C 54.625 64 56 62.566406 56 61.210938 L 56 18 L 38 0 Z M 10.671875 0 "/>
<path style=" stroke:none;fill-rule:nonzero;fill:rgb(0%,0%,0%);fill-opacity:0.196078;" d="M 42 18 L 56 32 L 56 18 Z M 42 18 "/>
<path style=" stroke:none;fill-rule:nonzero;fill:rgb(100%,100%,100%);fill-opacity:0.392157;" d="M 38 0 L 55.984375 18 L 40.757812 18 C 39.410156 18 38 16.574219 38 15.226562 Z M 38 0 "/>
<path style=" stroke:none;fill-rule:nonzero;fill:rgb(100%,100%,100%);fill-opacity:1;" d="M 22 28 L 22 30 L 42 30 L 42 28 Z M 22 28 "/>
<path style=" stroke:none;fill-rule:nonzero;fill:rgb(100%,100%,100%);fill-opacity:1;" d="M 21.109375 32.671875 L 21.109375 34.898438 L 43.320312 34.898438 L 43.320312 32.671875 Z M 21.109375 32.671875 "/>
<path style=" stroke:none;fill-rule:nonzero;fill:rgb(100%,100%,100%);fill-opacity:1;" d="M 22 38 L 22 40 L 42 40 L 42 38 Z M 22 38 "/>
<path style=" stroke:none;fill-rule:nonzero;fill:rgb(100%,100%,100%);fill-opacity:1;" d="M 31.34375 22.679688 L 31.34375 44.890625 L 33.089844 44.890625 L 33.089844 22.679688 Z M 31.34375 22.679688 "/>
<path style="fill:none;stroke-width:2;stroke-linecap:butt;stroke-linejoin:miter;stroke:rgb(100%,100%,100%);stroke-opacity:1;stroke-miterlimit:4;" d="M 20.440081 33.003461 C 18.442639 27.000275 18.442639 21.000606 20.440081 14.99742 " transform="matrix(1.110795,0,0,1.110738,5.55697,7.126947)"/>
<path style="fill:none;stroke-width:2;stroke-linecap:butt;stroke-linejoin:miter;stroke:rgb(100%,100%,100%);stroke-opacity:1;stroke-miterlimit:4;" d="M 27.466297 33.003461 C 29.470772 28.002564 29.470772 21.000606 27.466297 14.99742 " transform="matrix(1.110795,0,0,1.110738,5.55697,7.126947)"/>
<path style="fill:none;stroke-width:1.821;stroke-linecap:round;stroke-linejoin:miter;stroke:rgb(100%,100%,100%);stroke-opacity:1;stroke-miterlimit:4;" d="M 33.054316 27.317611 C 33.054316 32.344297 28.978747 36.420076 23.952319 36.420076 C 18.925891 36.420076 14.850322 32.344297 14.850322 27.317611 C 14.850322 22.290924 18.925891 18.215146 23.952319 18.215146 C 28.978747 18.215146 33.054316 22.290924 33.054316 27.317611 Z M 33.054316 27.317611 " transform="matrix(1.220113,0,0,1.220051,2.990299,0.456286)"/>
<path style=" stroke:none;fill-rule:nonzero;fill:rgb(0%,0%,0%);fill-opacity:0.196078;" d="M 8 48 L 8 61.335938 C 8 62.632812 9.375 64 10.664062 64 L 53.335938 64 C 54.625 64 56 62.632812 56 61.335938 L 56 48 Z M 8 48 "/>
<path style=" stroke:none;fill-rule:nonzero;fill:rgb(100%,100%,100%);fill-opacity:1;" d="M 20.105469 56.554688 C 20.105469 57.085938 20.128906 57.585938 20.164062 58.050781 C 20.222656 58.507812 20.3125 58.90625 20.445312 59.246094 C 20.585938 59.589844 20.785156 59.855469 21.035156 60.054688 C 21.292969 60.253906 21.625 60.351562 22.050781 60.351562 C 22.464844 60.351562 22.796875 60.253906 23.046875 60.054688 C 23.3125 59.855469 23.515625 59.589844 23.648438 59.246094 C 23.789062 58.890625 23.878906 58.492188 23.921875 58.035156 C 23.972656 57.574219 24.003906 57.085938 24.003906 56.554688 C 24.003906 56.027344 23.972656 55.539062 23.921875 55.082031 C 23.878906 54.605469 23.789062 54.207031 23.648438 53.867188 C 23.515625 53.527344 23.324219 53.261719 23.066406 53.058594 C 22.816406 52.859375 22.472656 52.761719 22.050781 52.761719 C 21.625 52.761719 21.292969 52.859375 21.035156 53.058594 C 20.785156 53.261719 20.585938 53.535156 20.445312 53.882812 C 20.3125 54.222656 20.222656 54.625 20.164062 55.082031 C 20.128906 55.539062 20.105469 56.027344 20.105469 56.554688 M 17.617188 56.554688 C 17.617188 54.683594 18.007812 53.269531 18.789062 52.320312 C 19.570312 51.355469 20.660156 50.882812 22.050781 50.882812 C 23.496094 50.882812 24.59375 51.355469 25.351562 52.320312 C 26.109375 53.269531 26.484375 54.683594 26.484375 56.554688 C 26.484375 58.433594 26.101562 59.847656 25.335938 60.8125 C 24.5625 61.757812 23.480469 62.234375 22.074219 62.234375 C 20.628906 62.234375 19.523438 61.757812 18.757812 60.8125 C 18 59.847656 17.617188 58.433594 17.617188 56.554688 "/>
<path style=" stroke:none;fill-rule:nonzero;fill:rgb(100%,100%,100%);fill-opacity:1;" d="M 36.460938 51.121094 L 36.460938 52.917969 L 33.226562 52.917969 L 33.226562 62 L 30.757812 62 L 30.757812 52.917969 L 27.523438 52.917969 L 27.523438 51.121094 L 36.460938 51.121094 "/>
<path style=" stroke:none;fill-rule:nonzero;fill:rgb(100%,100%,100%);fill-opacity:1;" d="M 46.007812 51.121094 L 46.007812 62 L 43.5625 62 L 43.5625 57.210938 L 40.304688 57.210938 L 40.304688 62 L 37.859375 62 L 37.859375 51.121094 L 40.304688 51.121094 L 40.304688 55.414062 L 43.5625 55.414062 L 43.5625 51.121094 L 46.007812 51.121094 "/>
</g>
</svg>

<svg xmlns="http://www.w3.org/2000/svg" viewBox="0 0 64 64">
 <g>
  <path d="m 10.672 0 c -1.375 0 -2.672 1.355 -2.672 2.789 l 0 58.42 c 0 1.355 1.375 2.789 2.672 2.789 l 42.656 0 c 1.297 0 2.672 -1.434 2.672 -2.789 l 0 -43.21 l -18 -18 m -27.328 0" style="fill:#7099c2;fill-opacity:1;stroke:none;fill-rule:nonzero"/>
  <path d="m 42 18 l 14 14 l 0 -14 m -14 0" style="fill:#000;fill-opacity:0.196;stroke:none;fill-rule:nonzero"/>
  <path d="m 38 0 l 17.984 18 l -15.227 0 c -1.348 0 -2.758 -1.426 -2.758 -2.773 m 0 -15.227" style="fill:#fff;fill-opacity:0.392;stroke:none;fill-rule:nonzero"/>
  <path d="m 22 28 l 0 2 l 20 0 l 0 -2 m -20 0" style="fill:#fff;fill-opacity:1;stroke:none;fill-rule:nonzero"/>
  <path d="m 21.11 32.672 l 0 2.227 l 22.21 0 l 0 -2.227 m -22.21 0" style="fill:#fff;fill-opacity:1;stroke:none;fill-rule:nonzero"/>
  <path d="m 22 38 l 0 2 l 20 0 l 0 -2 m -20 0" style="fill:#fff;fill-opacity:1;stroke:none;fill-rule:nonzero"/>
  <path d="m 31.344 22.68 l 0 22.21 l 1.746 0 l 0 -22.21 m -1.746 0" style="fill:#fff;fill-opacity:1;stroke:none;fill-rule:nonzero"/>
  <path d="m 20.44 33 c -1.997 -6 -1.997 -12 0 -18.01" transform="matrix(1.110795,0,0,1.110738,5.55697,7.126947)" style="stroke-opacity:1;fill:none;stroke-miterlimit:4;stroke:#fff;stroke-linecap:butt;stroke-linejoin:miter;stroke-width:2"/>
  <path d="m 27.466 33 c 2 -5 2 -12 0 -18.01" transform="matrix(1.110795,0,0,1.110738,5.55697,7.126947)" style="stroke-opacity:1;fill:none;stroke-miterlimit:4;stroke:#fff;stroke-linecap:butt;stroke-linejoin:miter;stroke-width:2"/>
  <path d="m 33.05 27.318 c 0 5.03 -4.076 9.102 -9.102 9.102 c -5.03 0 -9.102 -4.076 -9.102 -9.102 c 0 -5.03 4.076 -9.102 9.102 -9.102 c 5.03 0 9.102 4.076 9.102 9.102 m 0 0" transform="matrix(1.220113,0,0,1.220051,2.990299,0.456286)" style="stroke-opacity:1;fill:none;stroke-miterlimit:4;stroke:#fff;stroke-linecap:round;stroke-linejoin:miter;stroke-width:1.821"/>
  <path d="m 8 48 l 0 13.336 c 0 1.297 1.375 2.664 2.664 2.664 l 42.672 0 c 1.289 0 2.664 -1.367 2.664 -2.664 l 0 -13.336 m -48 0" style="fill:#000;fill-opacity:0.196;stroke:none;fill-rule:nonzero"/>
  <path d="m 20.11 56.55 c 0 0.531 0.023 1.031 0.059 1.496 c 0.059 0.457 0.148 0.855 0.281 1.195 c 0.141 0.344 0.34 0.609 0.59 0.809 c 0.258 0.199 0.59 0.297 1.016 0.297 c 0.414 0 0.746 -0.098 0.996 -0.297 c 0.266 -0.199 0.469 -0.465 0.602 -0.809 c 0.141 -0.355 0.23 -0.754 0.273 -1.211 c 0.051 -0.461 0.082 -0.949 0.082 -1.48 c 0 -0.527 -0.031 -1.016 -0.082 -1.473 c -0.043 -0.477 -0.133 -0.875 -0.273 -1.215 c -0.133 -0.34 -0.324 -0.605 -0.582 -0.809 c -0.25 -0.199 -0.594 -0.297 -1.016 -0.297 c -0.426 0 -0.758 0.098 -1.016 0.297 c -0.25 0.203 -0.449 0.477 -0.59 0.824 c -0.133 0.34 -0.223 0.742 -0.281 1.199 c -0.035 0.457 -0.059 0.945 -0.059 1.473 m -2.488 0 c 0 -1.871 0.391 -3.285 1.172 -4.234 c 0.781 -0.965 1.871 -1.438 3.262 -1.438 c 1.445 0 2.543 0.473 3.301 1.438 c 0.758 0.949 1.133 2.363 1.133 4.234 c 0 1.879 -0.383 3.293 -1.148 4.258 c -0.773 0.945 -1.855 1.422 -3.262 1.422 c -1.445 0 -2.551 -0.477 -3.316 -1.422 c -0.758 -0.965 -1.141 -2.379 -1.141 -4.258" style="fill:#fff;fill-opacity:1;stroke:none;fill-rule:nonzero"/>
  <path d="m 36.461 51.12 l 0 1.797 l -3.234 0 l 0 9.08 l -2.469 0 l 0 -9.08 l -3.234 0 l 0 -1.797 l 8.938 0" style="fill:#fff;fill-opacity:1;stroke:none;fill-rule:nonzero"/>
  <path d="m 46.01 51.12 l 0 10.879 l -2.445 0 l 0 -4.789 l -3.258 0 l 0 4.789 l -2.445 0 l 0 -10.879 l 2.445 0 l 0 4.293 l 3.258 0 l 0 -4.293 l 2.445 0" style="fill:#fff;fill-opacity:1;stroke:none;fill-rule:nonzero"/>
 </g>
</svg>
